images/icons/whatsapp.svg

<svg width="64" height="64" viewBox="0 0 64 64" fill="none" xmlns="http://www.w3.org/2000/svg">
<path d="M48.1295 43.3994C47.6042 44.8327 44.6149 46.5474 43.1068 46.7767C41.4282 47.0567 39.7082 46.9527 38.0749 46.4727C36.4122 45.962 34.7762 45.366 33.1735 44.6887C26.2682 41.754 21.2055 35.6327 18.8042 32.2394C18.7202 32.118 18.6589 32.034 18.6135 31.9807C17.8522 30.9527 15.2682 27.3074 15.2682 23.7407C15.2215 21.3887 16.1615 19.1247 17.8589 17.4967L18.0429 17.306C18.4295 16.8674 18.9815 16.606 19.5669 16.59H21.1975H21.4562C21.7015 16.59 21.8455 16.59 22.1735 17.3514C22.4175 17.9234 22.7762 18.77 23.1495 19.6394C24.1482 22.0327 24.7655 23.5114 24.9175 23.8167C25.0709 24.122 25.0402 24.206 24.9935 24.2967L24.8642 24.5407H24.8655C24.7162 24.89 24.5175 25.214 24.2695 25.5007L23.8055 26.058C23.5655 26.3687 23.3122 26.666 23.0429 26.95C22.5709 27.3114 22.2522 27.8367 22.1482 28.422C22.0442 29.0074 22.1602 29.61 22.4789 30.114C23.8589 32.4474 25.5829 34.5594 27.5935 36.3794C29.6042 38.1594 31.9002 39.59 34.3855 40.61L34.9109 40.838C35.4215 41.166 36.0335 41.298 36.6335 41.21C37.2322 41.122 37.7802 40.8194 38.1735 40.358C38.6149 39.8634 40.4002 37.8047 41.0469 36.8514C41.1082 36.7607 41.1549 36.714 41.1615 36.6994C41.3442 36.7314 41.5242 36.782 41.6962 36.8514C42.3815 37.0954 46.4362 39.0554 47.5802 39.6114L48.0762 39.8554C48.3122 39.962 48.5869 40.0994 48.7469 40.1914C48.7562 41.29 48.5455 42.382 48.1295 43.3994ZM50.6908 39.0847C50.2628 38.5234 49.6749 38.102 49.0069 37.8727L48.5349 37.6447C48.4895 37.6447 43.4042 35.1367 42.4349 34.786C41.7189 34.5274 40.2402 34.0234 39.1269 35.6474C38.6322 36.41 37.1295 38.1407 36.4349 38.9247C36.3749 38.994 36.3282 39.0234 36.3282 39.0327H36.3295C36.1735 39.0074 36.0229 38.9527 35.8869 38.8714C35.7349 38.7954 35.5135 38.7047 35.2549 38.59C32.9935 37.6767 30.9042 36.3874 29.0722 34.778C27.2442 33.1154 25.6735 31.1874 24.4149 29.0607L24.3082 28.9394C24.3855 28.8447 24.4709 28.7554 24.5589 28.6727C24.8642 28.374 25.1922 27.978 25.5042 27.6047L25.9469 27.086C26.3162 26.65 26.6242 26.166 26.8629 25.646L26.9762 25.41V25.4087C27.3842 24.6034 27.3589 23.646 26.9082 22.8634C26.7695 22.5967 25.8642 20.4247 25.2002 18.8394L24.2322 16.514C23.4162 14.586 22.3642 14.342 21.3882 14.334H21.2589H19.5135C18.2989 14.3527 17.1469 14.878 16.3335 15.782L16.1749 15.95H16.1735C14.0789 18.006 12.9242 20.8354 12.9802 23.77C12.9802 27.9327 15.6495 31.8887 16.7922 33.406L16.9215 33.5967C19.4682 37.1794 24.8415 43.6674 32.2682 46.822C33.9375 47.5327 35.6455 48.1527 37.3815 48.682C38.5935 49.0594 39.8562 49.25 41.1242 49.246C41.8909 49.246 42.6562 49.1847 43.4122 49.0634C45.2335 48.7967 49.2962 46.8447 50.2709 44.2154C50.9042 42.462 51.2642 40.0767 50.6828 39.1154L50.6908 39.0847Z" fill="white"/>
<path d="M52.5124 52.3807C47.7964 57.0247 41.6577 59.9553 35.0803 60.7007C28.5017 61.4473 21.8657 59.9673 16.227 56.4967C16.0484 56.386 15.843 56.3273 15.6337 56.3287C15.447 56.33 15.2644 56.3753 15.099 56.4593L3.20702 60.026L6.82035 48.3713C7.02969 48.0127 7.02969 47.5713 6.82035 47.2127C3.29902 41.7047 1.78835 35.15 2.54169 28.6553C3.29635 22.162 6.26969 16.1287 10.9604 11.5754C16.5137 6.14869 23.971 3.11002 31.735 3.11002C39.5004 3.11002 46.9577 6.14869 52.5124 11.5754C56.1483 15.1273 58.767 19.586 60.1017 24.4913C61.4363 29.3953 61.4363 34.5673 60.1017 39.4713C58.767 44.3767 56.1483 48.8353 52.5124 52.3873V52.3807ZM9.35902 9.93535C4.35368 14.7834 1.15102 21.1913 0.277688 28.1033C-0.595645 35.0167 0.913688 42.0193 4.55502 47.9593L0.385685 61.398C0.264351 61.8047 0.376354 62.2433 0.676354 62.542C0.971021 62.8433 1.40968 62.9553 1.81235 62.8313L15.5337 58.7233C21.587 62.31 28.655 63.7927 35.6404 62.9407C42.6244 62.0873 49.1297 58.9487 54.1443 54.0127C58.0697 50.1753 60.899 45.3593 62.3403 40.0633C63.7817 34.7673 63.7817 29.1807 62.3403 23.8834C60.899 18.5873 58.0697 13.7714 54.1443 9.93535C48.1604 4.07935 40.123 0.800682 31.751 0.800682C23.379 0.800682 15.3404 4.07935 9.35902 9.93535Z" fill="white"/>
</svg>

<svg width="64" height="64" fill="none" xmlns="http://www.w3.org/2000/svg"><path d="M48.13 43.4c-.526 1.433-3.515 3.147-5.023 3.377-1.679.28-3.399.176-5.032-.304a51.248 51.248 0 01-4.902-1.784c-6.905-2.935-11.968-9.056-14.369-12.45a3.568 3.568 0 00-.19-.258c-.762-1.028-3.346-4.674-3.346-8.24a8.42 8.42 0 012.59-6.244l.185-.191c.387-.439.939-.7 1.524-.716h1.89c.244 0 .389 0 .716.761.245.572.603 1.419.977 2.288.998 2.394 1.616 3.872 1.768 4.178.153.305.122.389.076.48l-.13.244h.002c-.15.349-.349.673-.596.96l-.465.557c-.24.31-.493.608-.762.892a2.382 2.382 0 00-.564 3.164 26.967 26.967 0 005.114 6.265 23.988 23.988 0 006.793 4.231l.525.228a2.503 2.503 0 003.263-.48c.44-.495 2.226-2.553 2.873-3.507.061-.09.108-.137.114-.152.183.032.363.083.535.152.686.244 4.74 2.204 5.884 2.76l.496.244c.236.107.51.244.67.336a8.297 8.297 0 01-.617 3.208zm2.56-4.315a3.58 3.58 0 00-1.683-1.212l-.472-.228c-.045 0-5.13-2.508-6.1-2.859-.716-.259-2.195-.763-3.308.861-.495.763-1.998 2.494-2.692 3.278-.06.069-.107.098-.107.108h.002a1.255 1.255 0 01-.443-.162c-.152-.076-.373-.166-.632-.281a21.655 21.655 0 01-6.183-3.812 24.813 24.813 0 01-4.657-5.717l-.107-.122c.078-.094.163-.184.25-.266.306-.299.634-.695.946-1.068l.443-.519c.37-.436.677-.92.916-1.44l.113-.236v-.001a2.677 2.677 0 00-.068-2.546c-.139-.266-1.044-2.438-1.708-4.024l-.968-2.325c-.816-1.928-1.868-2.172-2.844-2.18h-1.874a4.37 4.37 0 00-3.18 1.448l-.16.168a10.673 10.673 0 00-3.194 7.82c0 4.163 2.67 8.119 3.812 9.636l.13.19c2.546 3.583 7.92 10.071 15.346 13.226a51.43 51.43 0 005.114 1.86 12.46 12.46 0 003.742.564c.767 0 1.532-.061 2.288-.183 1.822-.266 5.884-2.218 6.859-4.848.633-1.753.993-4.138.412-5.1l.008-.03z" fill="#fff"/><path d="M52.512 52.38a29.598 29.598 0 01-36.285 4.117 1.112 1.112 0 00-.593-.168c-.187.001-.37.046-.535.13L3.207 60.026 6.82 48.371c.21-.358.21-.8 0-1.158a28.366 28.366 0 014.14-35.637 29.726 29.726 0 0141.552 0 28.524 28.524 0 010 40.812v-.007zM9.36 9.936A30.639 30.639 0 004.555 47.96L.385 61.398a1.15 1.15 0 00.291 1.144 1.13 1.13 0 001.136.29l13.722-4.109a31.87 31.87 0 0038.61-4.71 30.81 30.81 0 000-44.077 32.014 32.014 0 00-44.785 0z" fill="#fff"/></svg>
